flaticon/user-interface/browser-39.svg

<svg xmlns="http://www.w3.org/2000/svg" width="32" height="32" viewBox="0 0 24 24">
    <path d="M2.800781 1.199219C1.917969 1.199219 1.199219 1.917969 1.199219 2.800781 1.199219 3.683594 1.917969 4.398438 2.800781 4.398438 3.683594 4.398438 4.398438 3.683594 4.398438 2.800781 4.398438 1.917969 3.683594 1.199219 2.800781 1.199219zM2.800781 3.601562C2.359375 3.601562 2 3.242188 2 2.800781 2 2.359375 2.359375 2 2.800781 2 3.242188 2 3.601562 2.359375 3.601562 2.800781 3.601562 3.242188 3.242188 3.601562 2.800781 3.601562zM6.398438 1.199219C5.519531 1.199219 4.800781 1.917969 4.800781 2.800781 4.800781 3.683594 5.519531 4.398438 6.398438 4.398438 7.28125 4.398438 8 3.683594 8 2.800781 8 1.917969 7.28125 1.199219 6.398438 1.199219zM6.398438 3.601562C5.957031 3.601562 5.601562 3.242188 5.601562 2.800781 5.601562 2.359375 5.957031 2 6.398438 2 6.839844 2 7.199219 2.359375 7.199219 2.800781 7.199219 3.242188 6.839844 3.601562 6.398438 3.601562zM10 1.199219C9.117188 1.199219 8.398438 1.917969 8.398438 2.800781 8.398438 3.683594 9.117188 4.398438 10 4.398438 10.882812 4.398438 11.601562 3.683594 11.601562 2.800781 11.601562 1.917969 10.882812 1.199219 10 1.199219zM10 3.601562C9.558594 3.601562 9.199219 3.242188 9.199219 2.800781 9.199219 2.359375 9.558594 2 10 2 10.441406 2 10.800781 2.359375 10.800781 2.800781 10.800781 3.242188 10.441406 3.601562 10 3.601562zM10 3.601562"/>
    <path d="M 0 0 L 0 24 L 24 24 L 24 0 Z M 0.800781 0.800781 L 23.199219 0.800781 L 23.199219 4.800781 L 0.800781 4.800781 Z M 23.199219 23.199219 L 0.800781 23.199219 L 0.800781 5.601562 L 23.199219 5.601562 Z M 23.199219 23.199219"/>
    <path d="M20.398438 16C20.179688 16 20 16.179688 20 16.398438L20 17.199219C20 17.421875 20.179688 17.601562 20.398438 17.601562 20.621094 17.601562 20.800781 17.421875 20.800781 17.199219L20.800781 16.398438C20.800781 16.179688 20.621094 16 20.398438 16zM20.398438 11.199219C20.179688 11.199219 20 11.378906 20 11.601562L20 12.398438C20 12.621094 20.179688 12.800781 20.398438 12.800781 20.621094 12.800781 20.800781 12.621094 20.800781 12.398438L20.800781 11.601562C20.800781 11.378906 20.621094 11.199219 20.398438 11.199219zM18.800781 8.800781L19.601562 8.800781C19.820312 8.800781 20 8.621094 20 8.398438 20 8.179688 19.820312 8 19.601562 8L18.800781 8C18.578125 8 18.398438 8.179688 18.398438 8.398438 18.398438 8.621094 18.578125 8.800781 18.800781 8.800781zM20 10C20 10.222656 20.179688 10.398438 20.398438 10.398438 20.621094 10.398438 20.800781 10.222656 20.800781 10L20.800781 9.199219C20.800781 8.980469 20.621094 8.800781 20.398438 8.800781 20.179688 8.800781 20 8.980469 20 9.199219zM20.398438 13.601562C20.179688 13.601562 20 13.777344 20 14L20 14.800781C20 15.019531 20.179688 15.199219 20.398438 15.199219 20.621094 15.199219 20.800781 15.019531 20.800781 14.800781L20.800781 14C20.800781 13.777344 20.621094 13.601562 20.398438 13.601562zM13.199219 20L12.398438 20C12.179688 20 12 20.179688 12 20.398438 12 20.621094 12.179688 20.800781 12.398438 20.800781L13.199219 20.800781C13.421875 20.800781 13.601562 20.621094 13.601562 20.398438 13.601562 20.179688 13.421875 20 13.199219 20zM10.800781 20L10 20C9.777344 20 9.601562 20.179688 9.601562 20.398438 9.601562 20.621094 9.777344 20.800781 10 20.800781L10.800781 20.800781C11.019531 20.800781 11.199219 20.621094 11.199219 20.398438 11.199219 20.179688 11.019531 20 10.800781 20zM20.398438 18.398438C20.179688 18.398438 20 18.578125 20 18.800781L20 19.601562C20 19.820312 20.179688 20 20.398438 20 20.621094 20 20.800781 19.820312 20.800781 19.601562L20.800781 18.800781C20.800781 18.578125 20.621094 18.398438 20.398438 18.398438zM19.199219 20.398438C19.199219 20.621094 19.378906 20.800781 19.601562 20.800781L20.398438 20.800781C20.621094 20.800781 20.800781 20.621094 20.800781 20.398438 20.800781 20.179688 20.621094 20 20.398438 20L19.601562 20C19.378906 20 19.199219 20.179688 19.199219 20.398438zM4.398438 8.800781L5.199219 8.800781C5.421875 8.800781 5.601562 8.621094 5.601562 8.398438 5.601562 8.179688 5.421875 8 5.199219 8L4.398438 8C4.179688 8 4 8.179688 4 8.398438 4 8.621094 4.179688 8.800781 4.398438 8.800781zM4 10.800781C4.222656 10.800781 4.398438 10.621094 4.398438 10.398438L4.398438 9.601562C4.398438 9.378906 4.222656 9.199219 4 9.199219 3.777344 9.199219 3.601562 9.378906 3.601562 9.601562L3.601562 10.398438C3.601562 10.621094 3.777344 10.800781 4 10.800781zM16.800781 20.398438C16.800781 20.621094 16.980469 20.800781 17.199219 20.800781L18 20.800781C18.222656 20.800781 18.398438 20.621094 18.398438 20.398438 18.398438 20.179688 18.222656 20 18 20L17.199219 20C16.980469 20 16.800781 20.179688 16.800781 20.398438zM4.800781 20.398438C4.800781 20.621094 4.980469 20.800781 5.199219 20.800781L6 20.800781C6.222656 20.800781 6.398438 20.621094 6.398438 20.398438 6.398438 20.179688 6.222656 20 6 20L5.199219 20C4.980469 20 4.800781 20.179688 4.800781 20.398438zM4 13.199219C4.222656 13.199219 4.398438 13.019531 4.398438 12.800781L4.398438 12C4.398438 11.777344 4.222656 11.601562 4 11.601562 3.777344 11.601562 3.601562 11.777344 3.601562 12L3.601562 12.800781C3.601562 13.019531 3.777344 13.199219 4 13.199219zM4 20.398438C4.222656 20.398438 4.398438 20.222656 4.398438 20L4.398438 19.199219C4.398438 18.980469 4.222656 18.800781 4 18.800781 3.777344 18.800781 3.601562 18.980469 3.601562 19.199219L3.601562 20C3.601562 20.222656 3.777344 20.398438 4 20.398438zM4 15.601562C4.222656 15.601562 4.398438 15.421875 4.398438 15.199219L4.398438 14.398438C4.398438 14.179688 4.222656 14 4 14 3.777344 14 3.601562 14.179688 3.601562 14.398438L3.601562 15.199219C3.601562 15.421875 3.777344 15.601562 4 15.601562zM4 18C4.222656 18 4.398438 17.820312 4.398438 17.601562L4.398438 16.800781C4.398438 16.578125 4.222656 16.398438 4 16.398438 3.777344 16.398438 3.601562 16.578125 3.601562 16.800781L3.601562 17.601562C3.601562 17.820312 3.777344 18 4 18zM6.800781 8.800781L7.601562 8.800781C7.820312 8.800781 8 8.621094 8 8.398438 8 8.179688 7.820312 8 7.601562 8L6.800781 8C6.578125 8 6.398438 8.179688 6.398438 8.398438 6.398438 8.621094 6.578125 8.800781 6.800781 8.800781zM14.800781 20C14.578125 20 14.398438 20.179688 14.398438 20.398438 14.398438 20.621094 14.578125 20.800781 14.800781 20.800781L15.601562 20.800781C15.820312 20.800781 16 20.621094 16 20.398438 16 20.179688 15.820312 20 15.601562 20zM16.398438 8.800781L17.199219 8.800781C17.421875 8.800781 17.601562 8.621094 17.601562 8.398438 17.601562 8.179688 17.421875 8 17.199219 8L16.398438 8C16.179688 8 16 8.179688 16 8.398438 16 8.621094 16.179688 8.800781 16.398438 8.800781zM14 8.800781L14.800781 8.800781C15.019531 8.800781 15.199219 8.621094 15.199219 8.398438 15.199219 8.179688 15.019531 8 14.800781 8L14 8C13.777344 8 13.601562 8.179688 13.601562 8.398438 13.601562 8.621094 13.777344 8.800781 14 8.800781zM9.199219 8.800781L10 8.800781C10.222656 8.800781 10.398438 8.621094 10.398438 8.398438 10.398438 8.179688 10.222656 8 10 8L9.199219 8C8.980469 8 8.800781 8.179688 8.800781 8.398438 8.800781 8.621094 8.980469 8.800781 9.199219 8.800781zM11.601562 8.800781L12.398438 8.800781C12.621094 8.800781 12.800781 8.621094 12.800781 8.398438 12.800781 8.179688 12.621094 8 12.398438 8L11.601562 8C11.378906 8 11.199219 8.179688 11.199219 8.398438 11.199219 8.621094 11.378906 8.800781 11.601562 8.800781zM7.199219 20.398438C7.199219 20.621094 7.378906 20.800781 7.601562 20.800781L8.398438 20.800781C8.621094 20.800781 8.800781 20.621094 8.800781 20.398438 8.800781 20.179688 8.621094 20 8.398438 20L7.601562 20C7.378906 20 7.199219 20.179688 7.199219 20.398438zM8.800781 14.800781L11.601562 14.800781 11.601562 17.601562C11.601562 17.820312 11.777344 18 12 18 12.222656 18 12.398438 17.820312 12.398438 17.601562L12.398438 14.800781 15.199219 14.800781C15.421875 14.800781 15.601562 14.621094 15.601562 14.398438 15.601562 14.179688 15.421875 14 15.199219 14L12.398438 14 12.398438 11.199219C12.398438 10.980469 12.222656 10.800781 12 10.800781 11.777344 10.800781 11.601562 10.980469 11.601562 11.199219L11.601562 14 8.800781 14C8.578125 14 8.398438 14.179688 8.398438 14.398438 8.398438 14.621094 8.578125 14.800781 8.800781 14.800781zM8.800781 14.800781"/>
</svg>

<svg xmlns="http://www.w3.org/2000/svg" width="32" height="32" viewBox="0 0 24 24">
    <path d="M2.8 1.2c-.882 0-1.6.718-1.6 1.6a1.6 1.6 0 1 0 1.6-1.6zm0 2.402A.802.802 0 0 1 2.8 2a.802.802 0 0 1 0 1.602zm0 0M6.398 1.2A1.6 1.6 0 1 0 8 2.801c0-.884-.719-1.603-1.602-1.603zm0 2.402a.799.799 0 0 1-.796-.801.799.799 0 1 1 1.597 0c0 .441-.36.8-.8.8zm0 0M10 1.2c-.883 0-1.602.718-1.602 1.6A1.6 1.6 0 0 0 10 4.399a1.6 1.6 0 0 0 1.602-1.597c0-.883-.72-1.602-1.602-1.602zm0 2.402A.802.802 0 0 1 10 2a.802.802 0 0 1 0 1.602zm0 0"/>
    <path d="M0 0v24h24V0zm.8.8h22.4v4H.8zm22.4 22.4H.8V5.601h22.4zm0 0"/>
    <path d="M20.398 16a.4.4 0 0 0-.398.398v.801a.401.401 0 1 0 .8 0v-.8a.401.401 0 0 0-.402-.399zm0 0M20.398 11.2a.401.401 0 0 0-.398.402v.796a.401.401 0 1 0 .8 0v-.796a.402.402 0 0 0-.402-.403zm0 0M18.8 8.8h.802a.401.401 0 0 0 0-.8H18.8a.401.401 0 1 0 0 .8zm0 0M20 10c0 .223.18.398.398.398a.398.398 0 0 0 .403-.398v-.8a.401.401 0 0 0-.801 0zm0 0M20.398 13.602A.398.398 0 0 0 20 14v.8a.4.4 0 0 0 .8 0V14a.398.398 0 0 0-.402-.398zm0 0M13.2 20h-.802a.4.4 0 0 0 0 .8h.801a.401.401 0 0 0 0-.8zm0 0M10.8 20H10a.398.398 0 0 0-.398.398c0 .223.175.403.398.403h.8a.401.401 0 0 0 0-.801zm0 0M20.398 18.398a.401.401 0 0 0-.398.403v.8a.4.4 0 0 0 .8 0v-.8a.402.402 0 0 0-.402-.403zm0 0"/>
    <path d="M19.2 20.398c0 .223.179.403.402.403h.796a.401.401 0 0 0 0-.8l-.796-.001a.401.401 0 0 0-.403.398zm0 0M4.398 8.8H5.2a.401.401 0 0 0 0-.8h-.8a.4.4 0 0 0 0 .8zm0 0M4 10.8c.223 0 .398-.179.398-.402v-.796a.398.398 0 1 0-.796 0v.796c0 .223.175.403.398.403zm0 0M16.8 20.398c0 .223.18.403.4.403h.8c.223 0 .398-.18.398-.403A.398.398 0 0 0 18 20h-.8a.4.4 0 0 0-.4.398zm0 0M4.8 20.398c0 .223.18.403.4.403H6c.223 0 .398-.18.398-.403A.398.398 0 0 0 6 20h-.8a.4.4 0 0 0-.4.398zm0 0M4 13.2c.223 0 .398-.18.398-.4V12A.395.395 0 0 0 4 11.602a.395.395 0 0 0-.398.398v.8c0 .22.175.4.398.4zm0 0M4 20.398A.395.395 0 0 0 4.398 20v-.8a.398.398 0 1 0-.796 0v.8c0 .223.175.398.398.398zm0 0M4 15.602c.223 0 .398-.18.398-.403v-.8a.398.398 0 1 0-.796 0v.8c0 .223.175.403.398.403zm0 0M4 18c.223 0 .398-.18.398-.398V16.8a.398.398 0 1 0-.796 0v.8c0 .22.175.399.398.399zm0 0M6.8 8.8h.802a.401.401 0 0 0 0-.8H6.8a.401.401 0 1 0 0 .8zm0 0M14.8 20a.401.401 0 1 0 0 .8h.802a.401.401 0 0 0 0-.8zm0 0M16.398 8.8h.801a.401.401 0 0 0 0-.8h-.8a.4.4 0 0 0 0 .8zm0 0M14 8.8h.8a.401.401 0 0 0 0-.8H14a.398.398 0 0 0-.398.398c0 .223.175.403.398.403zm0 0M9.2 8.8h.8c.223 0 .398-.179.398-.402A.398.398 0 0 0 10 8h-.8a.4.4 0 0 0 0 .8zm0 0M11.602 8.8h.796a.401.401 0 0 0 0-.8h-.796a.401.401 0 1 0 0 .8zm0 0M7.2 20.398c0 .223.179.403.402.403h.796a.401.401 0 0 0 0-.8l-.796-.001a.401.401 0 0 0-.403.398zm0 0M8.8 14.8h2.802v2.802a.398.398 0 1 0 .796 0V14.8H15.2a.401.401 0 0 0 0-.8l-2.8-.001v-2.8a.398.398 0 1 0-.797 0V14H8.8a.401.401 0 1 0 0 .8zm0 0"/>
</svg>
